X: 8771
T: Cuckoo In The Tree, The
R: reel
M: 4/4
K: Amixolydian
|:f/g/|a 2a e|a/b/a/g/ e2|g/f/g/a/
|:e|e/c/c/c/ A/c/c/c/|A/c/B/A/
GB|B/d/B/A/ B/d/B/A/|B/d/B/A/ GB|
dg/f/|e/d/B/A/ G/A/B/d/|cA A:|

